images/ico_terms.svg

<svg width="23" height="23" viewBox="0 0 23 23" fill="none" xmlns="http://www.w3.org/2000/svg">
<path d="M22.425 15.597H16.7794V0.575C16.7794 0.25737 16.5221 0 16.2044 0H0.575C0.25737 0 0 0.25737 0 0.575V19.337C0 19.3504 0.00299 19.363 0.00391 19.3761C0.046 21.3813 1.67946 23 3.68529 23H19.3147C21.3468 23 23 21.3392 23 19.2979V16.172C23 15.8546 22.7426 15.597 22.425 15.597ZM1.15 19.2979V1.15H15.6294V15.597H6.79558C6.47795 15.597 6.22058 15.8544 6.22058 16.172V19.2979C6.22058 20.7051 5.08323 21.85 3.68529 21.85C2.28735 21.85 1.15 20.7051 1.15 19.2979ZM19.3147 21.85H6.34846C6.98004 21.1851 7.37081 20.2874 7.37081 19.2979V16.747H21.85V19.2979C21.85 20.7051 20.7127 21.85 19.3147 21.85Z" fill="white"/>
<path d="M3.65246 5H13.3475C13.708 5 14 4.7762 14 4.5C14 4.2238 13.708 4 13.3475 4H3.65246C3.29204 4 3 4.2238 3 4.5C3 4.7762 3.29204 5 3.65246 5Z" fill="white"/>
<path d="M3.57808 11H10.4219C10.7412 11 11 10.7762 11 10.5C11 10.2238 10.7412 10 10.4219 10H3.57808C3.25875 10 3 10.2238 3 10.5C3 10.7762 3.25875 11 3.57808 11Z" fill="white"/>
<path d="M3.65246 8H13.3475C13.708 8 14 7.7762 14 7.5C14 7.2238 13.708 7 13.3475 7H3.65246C3.29204 7 3 7.2238 3 7.5C3 7.7762 3.29204 8 3.65246 8Z" fill="white"/>
</svg>

<svg width="23" height="23" fill="none" xmlns="http://www.w3.org/2000/svg"><path d="M22.425 15.597h-5.646V.575A.575.575 0 0016.204 0H.575A.575.575 0 000 .575v18.762c0 .013.003.026.004.04C.046 21.38 1.679 23 3.685 23h15.63C21.347 23 23 21.34 23 19.298v-3.126a.575.575 0 00-.575-.575zm-21.275 3.7V1.15h14.48v14.447H6.795a.575.575 0 00-.575.575v3.126a2.547 2.547 0 01-2.536 2.552 2.547 2.547 0 01-2.535-2.552zm18.165 2.553H6.348a3.695 3.695 0 001.023-2.552v-2.551H21.85v2.55a2.547 2.547 0 01-2.535 2.553z" fill="#fff"/><path d="M3.652 5h9.696c.36 0 .652-.224.652-.5s-.292-.5-.652-.5H3.652C3.292 4 3 4.224 3 4.5s.292.5.652.5zm-.074 6h6.844c.32 0 .578-.224.578-.5s-.259-.5-.578-.5H3.578c-.32 0-.578.224-.578.5s.259.5.578.5zm.074-3h9.696c.36 0 .652-.224.652-.5s-.292-.5-.652-.5H3.652C3.292 7 3 7.224 3 7.5s.292.5.652.5z" fill="#fff"/></svg>
